X:639
%%etbk:tnset id:504,pos:2,rep:3x,ant:
%%etbk:wsite https://thesession.org/tunes/347
%%etbk:color #ffe6e6
%%etbk:pldat 2016-09-04T13:43,2016-07-26T15:22,2016-07-19T20:27,2016-07-09T13:23,2016-07-05T17:14,2016-06-16T19:21,2016-06-12T13:25,2016-05-30T19:07,2016-05-24T16:05,2016-05-23T18:12,2016-05-15T16:11,2016-05-14T17:32,2016-05-12T19:06,2016-04-30T17:44,2016-04-23T15:46,2016-04-21T18:57,2016-04-20T11:11,2015-07-16T16:39,2015-06-03T19:04,2015-06-01T15:16,2015-05-20T17:21,2015-04-27T19:17,2015-04-06T10:01
T: Martin Wynne's
Z: Piano Box Version by Martin Fleischmann
H: Created 2015-03-27 /  Last Modified 2016-04-20
R: reel
M: 4/4
L: 1/8
K: Dmaj
|:!5!A!3!F~F2 !4!G!2!E~E2|!3!F2AF !2!EF!1!D!2!B,|!1!A,B,D!4!E !2!~F3!5!B|!1!ABde !5!fedB|
!1!A!3!F~F2 GE~E2|F2AF EFDB,|A,B,DE ~F3B|1 ABde fddB:|2 ABd!4!e !3!fdd2||
|:!3!f2af gfeg|fedf e!1!d!2!Bc|dBAF !1!D2!2!F!4!B|!1!ABd!4!e !3!fe~e2|
f2af gfeg|fedf edBc|dBAF D3!4!B|1 !1!ABde fdd2:|2 ABde fddB|


